X:1
T:Title
%%score { ( 1 4 ) | ( 2 3 5 ) }
L:1/8
M:3/4
K:D
V:1 treble nm="Grand Piano"
V:4 treble 
V:2 bass 
V:3 bass 
V:5 bass 
V:1
 z2 z[Q:1/4=100] B ^AB | [B,D]3 D EG | [B,D]3 D CD | [B,G]3 G AE |[M:3/8] A3 | B^AB | %6
[M:3/4] [B,D]3 D EG | [B,D]3 B ^AB | [=Fd][E=c] [=CA]2 [DB]2 |[M:3/8] [B,G]3 | B^AB | %11
[M:3/4] =c4[K:bass][K:treble] z2 | [EG]4 z2 | [=CA]4 [C^D]E |[M:3/8] [^DF]3 | FB^d | %16
[M:3/4] ^d2 cF ce | [^Ge]2 ^dF Bd | ^dc ^G2 ^A2 |[M:3/8] [B,^DB]3 | BBB |[M:3/4] =c4 z2 | %22
[M:15/16] .D,3 z3/2 [Bd][^Ac]/-[Ac]/[Bd] |[M:3/4] [GB]3 B AG |[M:3/8] [EG]3 | =cGA | %26
[M:3/4] BD A3 D | [DB]3 B ^AB |[M:7/8] [G,B,G]2 A Be3/2d3/2 |[M:3/8] [=CE=c]3 | EGA | %31
[M:3/4] BD B3 A | %32
 [B,G]3 B AB[Q:1/4=97][Q:1/4=94][Q:1/4=91][Q:1/4=88][Q:1/4=84][Q:1/4=81][Q:1/4=78] | [B,D]3 D CD | %34
[M:9/16] [B,G]4- [B,G]/ |] %35
V:2
 z2 z D CD | G,,D, z B, =CE | z2 G,2 z2 | G,,D, z B, CC |[M:3/8] [D,F,=C]3 | DCD | %6
[M:3/4] G,,D, z B, =CE | G,,D, z D CD | [B,,G,][=C,G,] [D,F,]2 [D,F,]2 |[M:3/8] [G,,D,G,]3 | z3 | %11
[M:3/4] ^D4- [B,,B,D]2 | E,G, z[K:treble] G FG | z2 A,4 |[M:3/8] B,,F,B, | ^DDF | %16
[M:3/4] [B,F]2 [^A,E]E E^G | z2[K:treble] F^D DF | [B,F][^A,E] [B,E]2 [CE]2 | %19
[M:3/8][K:bass] B,,F,B,, | [G,,G,]2 [=F,,=F,] |[M:3/4] .G,2 z2 .^A,2 | %22
[M:15/16] D,,A,,/-A,,/D,-D,3/2DC/-C/D |[M:3/4] G,,D, z[K:treble] G F=F |[M:3/8][K:bass] =C,G,=C | %25
 EE^D |[M:3/4] DB, [D,F,=C]3 [D,F,A,] | G,,D, z D CD |[M:7/8] G,,B,,F,- [F,D][K:treble]G3/2=F3/2 | %29
[M:3/8][K:bass] =C,G,C, | =CE^D |[M:3/4] DB, D3 [D,F,=C] | [G,,D,]D, z D CD | z2 G,2 z2 | %34
[M:9/16] [G,,D,G,]4- [G,,D,G,]/ |] %35
V:3
 x6 | z2 G,2 z2 | G,,D, z B, ^A,B, | z2 G,2 [E,G,]2 |[M:3/8] x3 | x3 |[M:3/4] z2 G,2 z2 | %7
 z2 G,2 z2 | x6 |[M:3/8] x3 | x3 |[M:3/4] .[F,A,]2 z2 z2 | z2 B,2[K:treble] z2 | =C,E, z E z ^A, | %14
[M:3/8] x3 | x3 |[M:3/4] F,4 z2 | [B,,B,]4[K:treble] z2 | F,6 |[M:3/8][K:bass] x3 | x3 | %21
[M:3/4] [E,,E,]3- [E,,E,G,] [^D,,^D,]-[D,,D,G,] |[M:15/16] x15/2 |[M:3/4] z2 G,2[K:treble] z2 | %24
[M:3/8][K:bass] x3 | x3 |[M:3/4] [D,G,]2 z2 z2 | G,2 G,2 z2 | %28
[M:7/8] z2 [D,=C] z[K:treble] [G,B,]3 |[M:3/8][K:bass] x3 | x3 |[M:3/4] [D,G,]6 | z2 G,2 z2 | %33
 G,,D, z B, ^A,B, |[M:9/16] x9/2 |] %35
V:4
 x6 | x6 | x6 | x6 |[M:3/8] x3 | x3 |[M:3/4] x6 | x6 | x6 |[M:3/8] x3 | x3 | %11
[M:3/4] z[K:bass] A, B,,[K:treble]B F>A | B,2 z2 z2 | x6 |[M:3/8] B,2 z | x3 |[M:3/4] x6 | x6 | %18
 x6 |[M:3/8] x3 | x3 |[M:3/4] z G, G,=c ^cc |[M:15/16] [F,A,d]3/2- [F,A,d]3 z3 |[M:3/4] x6 | %24
[M:3/8] x3 | x3 |[M:3/4] x6 | x6 |[M:7/8] x7 |[M:3/8] x3 | x3 |[M:3/4] x6 | G,2 z2 z2 | G,2 z2 z2 | %34
[M:9/16] x9/2 |] %35
V:5
 x6 | x6 | x6 | x6 |[M:3/8] x3 | x3 |[M:3/4] x6 | x6 | x6 |[M:3/8] x3 | x3 |[M:3/4] x6 | %12
 x3[K:treble] x3 | z2 z2 =C,2 |[M:3/8] x3 | x3 |[M:3/4] x6 | x2[K:treble] x4 | x6 | %19
[M:3/8][K:bass] x3 | x3 |[M:3/4] x6 |[M:15/16] x15/2 |[M:3/4] x3[K:treble] x3 |[M:3/8][K:bass] x3 | %25
 x3 |[M:3/4] x6 | x6 |[M:7/8] x4[K:treble] x3 |[M:3/8][K:bass] x3 | x3 |[M:3/4] x6 | x6 | x6 | %34
[M:9/16] x9/2 |] %35

